svg/free/sort-ascending.svg

<svg version="1.1" xmlns="http://www.w3.org/2000/svg" width="24" height="24" viewBox="0 0 24 24">
<title>sort-ascending</title>
<path d="M9.455 5.057l-4.243-4.243-4.243 4.243 1.061 1.061 2.432-2.432v19.574h1.5v-19.574l2.432 2.432 1.061-1.061z"></path>
<path d="M8.625 7.5h5.625v1.5h-5.625v-1.5z"></path>
<path d="M8.625 10.875h8.625v1.5h-8.625v-1.5z"></path>
<path d="M8.625 14.25h11.625v1.5h-11.625v-1.5z"></path>
<path d="M8.625 17.625h14.625v1.5h-14.625v-1.5z"></path>
</svg>

<svg xmlns="http://www.w3.org/2000/svg" width="24" height="24" viewBox="0 0 24 24"><path d="M9.455 5.057L5.212.814.969 5.057 2.03 6.118l2.432-2.432V23.26h1.5V3.686l2.432 2.432 1.061-1.061z"/><path d="M8.625 7.5h5.625V9H8.625V7.5zM8.625 10.875h8.625v1.5H8.625v-1.5zM8.625 14.25H20.25v1.5H8.625v-1.5zM8.625 17.625H23.25v1.5H8.625v-1.5z"/></svg>
